X:123
T:Drum beats to Arms,The. JJo.123
S:J.Jones MS,1801,N.Shrops.
N:This may be a continuation of JJo.122.
Z:Neil Brookes 2006
M:4/4
L:1/8
Q:1/4=120
K:F
“_lead note qu in MS”c2|f2f>ff2b>a|g>fe>fg2ag|\
f2f>ff2b>a|g2g>gg2c’b|agfg a2g2|f2f>ff2::!
a/b/|c’2c’2c’3b/a/|b2b2b3g/f/|a2a2a3g/f/|c’2c>cc2ag|!
f2z2z2ba|g2z2z2c’b|a>gf>ga2g2|f2f>ff2:|

